X:27
T:Mikor gulásbojtár voltam
O: Felsőiregh (Tolna)
Q: "Lassan"
M:none
L:1/4
K:F
d A c/B/ | A/G/ F HD |
d A c/B/ | A/G/ F HD |
G A F/D/ | D/C/  F HD |
G A c/d/ | A/G/ D HD |

